X:13
T: Fekete a babám szeme, szökjen ki
S: Mezőkölpény
M:4/4
L:1/4
K:F
F/G/A/A/ F/G/A/A/ | D<D C z |
G/G/G/G/ d/d/d/c/ | A<F F z |
dcAF | d/d/d/c/ A/G/ D |
G/G/ G/F/ d/c/ A/G/ | D<D D z |
W: Fekete a babém szeme, szökjön ki
W: Ha nálamnál szebbet akar szeretni.
W: Adjon az ég szebbet, jobbat nálamnál,
W: Nekem pedig, csak amilyen te voltál.
W: 
W: Végig mentem én az utcán dalolva
W: Állt a babám a fogadó ajtóba.
W: Köszöntem, de szavamat se fogadta.
W: Haragszik rám, két szép szeme mulatta.
W: 
W: Piritusból csinálják a pálinkát,
W: Azért nem lát senki rajtam jó gúnyát.
W: Bár csinálnák édes tejből ecetből,
W: A kocsmáros ne éljen a zsebemből

